X: 27075
T: Miss Johnson Of Pitsworth
R: reel
M: 4/4
K: Gdorian
|:A|B2d/c/B AFFA|B2d/c/B fBdc|BfdB AFFA|dDA^FG2G:|
a|g2bg dgbg|efaf cfaf|g2bg dgbg|^fgaf g2gd|
gbdb caBg|fdcB AFFA|GABc dcBg|BGA^F G2G||

